X:1
T:jesu review
%%score 1 2 3 4
L:1/8
M:3/4
K:C
V:1 treble nm="Violin 1" snm="Vln."
V:2 treble nm="Violin 2" snm="Vln."
V:3 treble nm="Violin 3" snm="Vln."
V:4 bass nm="Violoncello" snm="Vlc."
V:1
 (3z GA (3Bdc (3ced | (3dg^f (3gdB (3GAB | (3cde (3dcB (3ABG | (3^FGA (3DFA (3cBA | %4
 (3BGA (3Bdc (3ced | (3dg^f (3gdB (3GAB | (3Edc (3BAG (3DG^F | (3GBd (3gdB (3GBd | g2 z2 c2 | %9
 d4 d2 | c4 B2 | (3z DE (3^FAG (3AcB | (3cA^F (3DFA (3cBA | (3BGA (3Bdc (3ced | %14
 (3dg^f (3gdB (3GAB | (3Edc (3BAG (3DG^F | (3GBA (3Bdc (3ced | (3dg^f (3gdB (3GAB | %18
 (3cde (3dcB (3ABG | (3^FGA (3DFA (3cBA | (3BGA (3Bdc (3ced | (3dg^f (3gdB (3GAB | %22
 (3Edc (3BAG (3DG^F | G2 z2 c2 | d4 d2 | c4 B2 | (3z DE (3^FAG (3AcB | (3cA^F (3DFA (3cBA | %28
 (3BGA (3Bdc (3ced | (3dg^f (3gdB (3GAB | (3Edc (3BAG (3DG^F | (3GBA (3Bdc (3ced | %32
 (3dg^f (3gdB (3GAB | (3cde (3dcB (3ABG | (3^FGA (3DFA (3cBA | (3BGA (3Bdc (3ced | %36
 (3dg^f (3gdB (3GAB | (3Edc (3BAG (3DG^F | (3GBd (3gdB (3GB^c | (3dDE (3^FA^G (3GBA | %40
 (3AcB (3cAE (3CDE | (3Fdc (3dB^G (3E^FG | (3AcB (3ced (3dfe | (3ea^g (3aec (3ABc | %44
 (3fed (3cBA (3EA^G | (3Ace a2 z2 | (3z cd (3egf (3g_ba | (3ac'b (3c'af (3def | %48
 (3egf (3gec (3GA_B | (3AcB (3cAF (3DEF | (3ECD (3EG^F (3GBA | (3BGA (3Bdc (3ced | %52
 (3dg^f (3gdB (3GAB | (3cde (3dcB (3ABG | (3^FDE (3FAG (3AcB | (3cA^F (3DFA (3cBA | %56
 (3BGA (3Bdc (3ced | (3dg^f (3gdB (3GAB | (3Edc (3BAG (3DG^F | (3GBd (3gdB (3GBd | %60
 (3fdB (3GBd (3ecA | (3^FAc (3dBG (3EGB | (3cA^F (3DFA (3cBA | (3BGA (3Bdc (3ced | %64
 (3dg^f (3gdB (3GAB | (3cde (3dcB (3ABG | (3^FGA (3DFA (3cBA | (3BGA (3Bdc (3ced | %68
 (3dg^f (3gdB (3GAB | (3Edc (3BAG (3DG^F | !fermata!G6 |] %71
V:2
 z2 (3:2:2G2 ^F (3:2:2G2 A | (3:2:2B2 A (3:2:2B2 G (3:2:2E2 D | %2
 (3:2:2E2 ^F (3:2:2G2 D (3:2:2E2 B, | (3:2:2A,2 D (3:2:2A2 G (3:2:2A2 ^F | %4
 (3:2:2D2 ^F (3:2:2G2 F (3:2:2G2 A | (3:2:2B2 A (3:2:2B2 G (3:2:2E2 G | %6
 (3:2:2A2 ^F (3:2:2G2 E (3:2:2A,2 C | (3:2:2B,2 G (3:2:2B2 d g2 | [DB]4 G2 | A2 G2 ^F2 | G2 D4 | %11
 [DA]2 [DA]2 (3:2:2^F2 G | (3:2:2A2 c (3:2:2A2 ^F (3:2:2D2 F | B4 c2 | d4 B2 | AB/c/ B2 A2 | %16
 G4 (3:2:2G2 A | (3:2:2B2 A (3:2:2B2 G (3:2:2E2 D | (3:2:2E2 ^F (3:2:2G2 D (3:2:2E2 B, | %19
 (3:2:2A,2 D (3:2:2A2 G (3:2:2A2 ^F | (3:2:2D2 ^F (3:2:2G2 F (3:2:2G2 A | %21
 (3:2:2B2 A (3:2:2B2 G (3:2:2E2 G | (3:2:2A2 ^F (3:2:2G2 E (3:2:2A,2 C | [DB]4 G2 | A2 G2 ^F2 | %25
 G2 D4 | [DA]2 [DA]2 (3:2:2^F2 G | (3:2:2A2 c (3:2:2A2 ^F (3:2:2D2 F | B4 c2 | d4 B2 | %30
 AB/c/ B2 A2 | G2- (3:2:2G2 ^F (3:2:2G2 A | (3:2:2B2 A (3:2:2B2 G (3:2:2E2 D | %33
 (3:2:2E2 ^F (3:2:2G2 D (3:2:2E2 B, | (3:2:2A,2 D (3:2:2A2 G (3:2:2A2 ^F | %35
 (3:2:2D2 ^F (3:2:2G2 F (3:2:2G2 A | (3:2:2B2 A (3:2:2B2 G (3:2:2E2 G | %37
 (3:2:2A2 ^F (3:2:2G2 E (3:2:2A,2 C | (3:2:2B,2 G (3:2:2B2 d g2 | [DA]4 [DB]2 | c4 c2 | %41
 B3 c/d/ B2 | A2 A2 (3:2:2A2 B | (3:2:2c2 B (3:2:2c2 A (3:2:2F2 A | %44
 (3:2:2A2 ^G (3:2:2A2 ^F (3:2:2B,2 D | c4 d2 | e4 e2 | d3 e/f/ d2 | c2 (3:2:2c2 G (3:2:2E2 D | %49
 (3:2:2C2 E (3:2:2F2 A (3:2:2B2 d | (3:2:2c2 G (3:2:2c2 A (3:2:2d2 ^F | B4 c2 | d4 d2 | c2 B4 | %54
 A4 (3:2:2^F2 G | (3:2:2A2 c (3:2:2A2 ^F (3:2:2D2 F | B4 c2 | d4 B2 | AB/c/ A4 | %59
 G2- (3:2:2G2 D (3:2:2G2 B | (3:2:2d2 G (3:2:2B2 B (3:2:1c3- | (3:2:2c2 A (3:2:1B3- (3:2:2B2 G | %62
 (3:2:1A3- (3:2:2A2 ^F (3:2:2D2 F | (3:2:2G2 D (3:2:2G2 ^F (3:2:2G2 A | %64
 (3:2:2B2 A (3:2:2B2 G (3:2:2E2 D | (3:2:2E2 ^F (3:2:2G2 D (3:2:2E2 B, | %66
 (3:2:2A,2 D (3:2:2A2 G (3:2:2A2 ^F | (3:2:2D2 ^F (3:2:2G2 F (3:2:2G2 A | %68
 (3:2:2B2 A (3:2:2B2 G (3:2:2E2 G | (3:2:2A2 ^F (3:2:2G2 E (3:2:2A,2 C | !fermata!B,6 |] %71
V:3
[K:G] G,2 G2 E2 | B,2 E2 E2 | A,2 B,2 C2 | D2 F2 D2 | G2 E2 C2 | B,2 E2 D2 | C2 ^C2 D2 | %7
 G,2 z2 z2 | G4 E2 | A,4 B,2 | B,2 A,2 G,2 | F2 F2 z2 | z6 | G4 G2 | G2 D2 G2 | E2 FE F2 | B,4 E2 | %17
 B,2 E2 E2 | A,2 B,2 C2 | D2 F2 D2 | G2 E2 C2 | B,2 E2 D2 | C2 ^C2 D2 | G4 E2 | A,4 B,2 | %25
 B,2 A,2 G,2 | F2 F2 z2 | z6 | G4 G2 | G2 D2 G2 | E2 FE F2 | B,4 E2 | B,2 E2 E2 | A,2 B,2 C2 | %34
 D2 F2 D2 | G2 E2 C2 | B,2 E2 D2 | C2 ^C2 D2 | G,2 z2 z2 | F4 ^G2 | [EA]4 [=FA]2 | [=FA]4 [E^G]2 | %42
 C2 C2 D2 | C2 =F2 E2 | D2 ^D2 E2 | E4 G2 | G2 c2 G2 | A4 B2 | c2 c2 C2 | =F2 D2 G2 | C2 z4 | %51
 G4 G2 | G4 G2 | GF G2- [EG]2 | F4 z2 | z6 | G4 G2 | G2 D2 G2 | E2 FE F2 | G4 z2 | G,6- | G,6- | %62
 G,6- | G,2 G2 E2 | B,2 E2 E2 | A,2 B,2 C2 | D2 F2 D2 | G2 E2 C2 | B,2 E2 D2 | C2 ^C2 D2 | %70
 !fermata!G,6 |] %71
V:4
[K:G] G,,2 G,2 E,2 | B,,2 E,2 E,,2 | A,,2 B,,2 C,2 | D,2 F,2 D,2 | G,2 E,2 C,2 | B,,2 E,2 D,2 | %6
 C,2 ^C,2 D,2 | G,,2 (3z z G, (3:2:2D,2 B,, | G,,2 F,2 E,2 | F,2 E,2 D,2 | E,2 F,2 G,2 | %11
 D,2 (3z z D, (3:2:2D,2 D, | D,,2 (3z z D, (3:2:2D,2 D, | G,2 F,2 E,2 | B,2 B,,2 E,2 | %15
 C,2 D,2 D,,2 | G,,2 G,2 E,2 | B,,2 E,2 E,,2 | A,,2 B,,2 C,2 | D,2 F,2 D,2 | G,2 E,2 C,2 | %21
 B,,2 E,2 D,2 | C,2 ^C,2 D,2 | G,,2 F,2 E,2 | F,2 E,2 D,2 | E,2 F,2 G,2 | %26
 D,2 (3z z D, (3:2:2D,2 D, | D,,2 (3z z D, (3:2:2D,2 D, | G,2 F,2 E,2 | B,2 B,,2 E,2 | %30
 C,2 D,2 D,,2 | G,,2 G,2 E,2 | B,,2 E,2 E,,2 | A,,2 B,,2 C,2 | D,2 F,2 D,2 | G,2 E,2 C,2 | %36
 B,,2 E,2 D,2 | C,2 ^C,2 D,2 | G,,2 (3z z G, (3:2:2F,2 E, | D,2 C,2 B,,2 | A,,2 A,G, =F,E, | %41
 D,2 B,,2 E,2 | A,,2 =F,2 D,2 | C,2 =F,2 E,2 | D,2 ^D,2 E,2 | A,,2 A,2 B,2 | C2 A,2 E,2 | %47
 =F,2 D,2 G,2 | C,2 E,2 C,2 | =F,2 D,2 G,2 | C,2 (3z z C, (3:2:2B,,2 D, | G,,2 G,2 E,2 | %52
 B,,2 E,2 E,,2 | A,,2 B,,2 C,2 | D,2 (3z z D, (3:2:2D,2 D, | D,,2 (3z z D, (3:2:2D,2 D, | %56
 G,2 F,2 E,2 | B,2 B,,2 E,2 | C,2 D,2 D,,2 | (G,,6 | G,,6-) | G,,6- | G,,6- | G,,2 G,2 E,2 | %64
 B,,2 E,2 E,,2 | A,,2 B,,2 C,2 | D,2 F,2 D,2 | G,2 E,2 C,2 | B,,2 E,2 D,2 | C,2 ^C,2 D,2 | %70
 !fermata!G,,6 |] %71

